X: 179
T: Dillon's Other Breakfast (reel) 
N: 041999
C: BB
N: revised 1/11/07
R: reel
Q: 1/8=380
M: 4/4
L: 1/8
K: D
e|"Bm"dBAF "G"GBdB|"A"Aceg "D"fddc|"Bm"BAFE "D"DFAd |"Bm"fagf "A"e3A |
"D"faaf "A"eAcA | "Bm"BcdB "D"ADFD | "C"EG=cG "D"Adfa |"A"gece "D"d3 :|
A| "C"=cBcd edcd | "A"eA^cA eAcA | "C"=c2 ec gcec |"A"egec "D"d3 A |
"C"=cG G2 "Bm"BF F2|"A7"EGAG "D"FD D2|"C"=CEEF GEEG|\
"A"AGEC "D"D3 :|
%%%%%%%%%%%%
